icons/1_Primary/Well.ca.svg

<svg width="1024" height="1024" viewBox="0 0 1024 1024" fill="none" xmlns="http://www.w3.org/2000/svg">
<g clip-path="url(#clip0_2_3912)">
<path d="M512 1024C794.77 1024 1024 794.77 1024 512C1024 229.23 794.77 0 512 0C229.23 0 0 229.23 0 512C0 794.77 229.23 1024 512 1024Z" fill="#98DC9A"/>
<path d="M784 512.17C784 361.95 662.22 240.17 512 240.17C361.78 240.17 240 361.95 240 512.17C240 657.01 353.5 776.44 498.15 783.81V725.32C509.467 728.299 521.394 728.021 532.56 724.52V783.39C674.4 772.64 784 654.41 784 512.16V512.17ZM515.57 316.58L572.27 368.98L515.5 419.44L458.85 370.75L515.57 316.57V316.58ZM511 704.99C484.919 701.092 460.084 691.245 438.418 676.213C416.751 661.181 398.833 641.365 386.05 618.3C371.842 589.435 364.239 557.769 363.79 525.6C362.97 493.9 365.86 462.21 372.37 431.17C379.12 397.79 388.77 365.06 401.22 333.35L521.9 440.95C548.154 463.124 565.658 493.918 571.28 527.82C575.1 556.87 571.77 586.42 561.57 613.89C549.732 646.788 532.652 677.555 510.99 705L511 704.99ZM664.89 525.32C664.48 557.45 656.96 589.1 642.86 617.97C630.734 640.159 613.962 659.471 593.691 674.587C573.42 689.703 550.127 700.268 525.4 705.56C546.813 677.205 563.707 645.705 575.48 612.18C585.33 583.98 588.15 553.8 583.69 524.27C577.298 489.537 559.071 458.091 532.11 435.28L522.68 426.87L627.49 333.44C639.903 365.076 649.539 397.733 656.29 431.04C662.82 462.07 665.72 493.76 664.92 525.47L664.9 525.32H664.89Z" fill="white"/>
</g>
<defs>
<clipPath id="clip0_2_3912">
<rect width="1024" height="1024" fill="white"/>
</clipPath>
</defs>
</svg>

<svg xmlns="http://www.w3.org/2000/svg" width="1024" height="1024" fill="none">
   <g clip-path="url(#a)">
      <path fill="#98DC9A" d="M512 1024c282.77 0 512-229.23 512-512S794.77 0 512 0 0 229.23 0 512s229.23 512 512 512Z"/>
      <path fill="#fff" d="M784 512.17c0-150.22-121.78-272-272-272s-272 121.78-272 272c0 144.84 113.5 264.27 258.15 271.64v-58.49a62.14 62.14 0 0 0 34.41-.8v58.87C674.4 772.64 784 654.41 784 512.16v.01ZM515.57 316.58l56.7 52.4-56.77 50.46-56.65-48.69 56.72-54.18v.01ZM511 704.99a171.906 171.906 0 0 1-124.95-86.69 216.757 216.757 0 0 1-22.26-92.7c-.82-31.7 2.07-63.39 8.58-94.43 6.75-33.38 16.4-66.11 28.85-97.82l120.68 107.6a144.691 144.691 0 0 1 49.38 86.87c3.82 29.05.49 58.6-9.71 86.07A324.269 324.269 0 0 1 510.99 705l.01-.01Zm153.89-179.67c-.41 32.13-7.93 63.78-22.03 92.65a175.777 175.777 0 0 1-117.46 87.59 344.19 344.19 0 0 0 50.08-93.38c9.85-28.2 12.67-58.38 8.21-87.91a152.793 152.793 0 0 0-51.58-88.99l-9.43-8.41 104.81-93.43a585.807 585.807 0 0 1 28.8 97.6c6.53 31.03 9.43 62.72 8.63 94.43l-.02-.15h-.01Z"/>
   </g>
   <defs>
      <clipPath id="a">
         <path fill="#fff" d="M0 0h1024v1024H0z"/>
      </clipPath>
   </defs>
</svg>
